src/assets/icons/skills/git.svg

<svg xmlns="http://www.w3.org/2000/svg"  viewBox="0 0 50 50" width="50px" height="50px"><path d="M 46.792969 22.089844 L 27.910156 3.207031 C 27.109375 2.402344 26.054688 2 25 2 C 23.945313 2 22.890625 2.402344 22.089844 3.207031 L 18.355469 6.941406 L 22.976563 11.5625 C 24.511719 10.660156 26.511719 10.855469 27.828125 12.171875 C 29.144531 13.488281 29.335938 15.488281 28.433594 17.019531 L 32.976563 21.5625 C 34.511719 20.660156 36.511719 20.855469 37.828125 22.171875 C 39.390625 23.734375 39.390625 26.265625 37.828125 27.828125 C 36.265625 29.390625 33.734375 29.390625 32.171875 27.828125 C 30.855469 26.511719 30.660156 24.511719 31.5625 22.976563 L 27.019531 18.433594 C 26.695313 18.625 26.355469 18.765625 26 18.855469 L 26 31.140625 C 27.722656 31.585938 29 33.136719 29 35 C 29 37.210938 27.210938 39 25 39 C 22.789063 39 21 37.210938 21 35 C 21 33.136719 22.277344 31.585938 24 31.140625 L 24 18.855469 C 23.332031 18.683594 22.695313 18.351563 22.171875 17.828125 C 20.855469 16.511719 20.664063 14.511719 21.566406 12.980469 L 16.941406 8.355469 L 3.207031 22.089844 C 1.597656 23.695313 1.597656 26.304688 3.207031 27.910156 L 22.089844 46.792969 C 22.890625 47.597656 23.945313 48 25 48 C 26.054688 48 27.109375 47.597656 27.910156 46.792969 L 46.792969 27.910156 C 48.402344 26.304688 48.402344 23.695313 46.792969 22.089844 Z"/></svg>

<svg xmlns="http://www.w3.org/2000/svg" width="50" height="50"><path d="M46.793 22.09 27.91 3.207A4.093 4.093 0 0 0 25 2c-1.055 0-2.11.402-2.91 1.207l-3.735 3.734 4.622 4.622a3.994 3.994 0 0 1 4.851.609 3.988 3.988 0 0 1 .606 4.848l4.543 4.543a3.994 3.994 0 0 1 4.851 6.265 3.994 3.994 0 0 1-6.266-4.852l-4.542-4.542a3.855 3.855 0 0 1-1.02.421v12.286A3.99 3.99 0 0 1 29 35c0 2.21-1.79 4-4 4s-4-1.79-4-4a3.99 3.99 0 0 1 3-3.86V18.856a3.955 3.955 0 0 1-1.828-1.027 3.988 3.988 0 0 1-.606-4.848l-4.625-4.625L3.207 22.09a4.112 4.112 0 0 0 0 5.82L22.09 46.793A4.093 4.093 0 0 0 25 48c1.055 0 2.11-.402 2.91-1.207L46.793 27.91a4.112 4.112 0 0 0 0-5.82Z"/></svg>
